X:4891
T:Over the Moor to Maggie
O:england
M:4/4
L:1/8
Q:1/4=220
C:Trad
K:G
BA|G3 A BGBd|efge dBAG|EAAG ABAG|EAAG AcBA|
G2 GA BGBd|efge dBAG|EGGF GAGE|DGGFG2:|
ga|b3 g a3 f|gage d2 Bd|eaag abag|eaag a2 ga|
b2 bg a2 af|gage d2 Bd|eggf gage|dggf g2:|
cd|e3 c d3 B|c3 A B2 AG|EAAG ABAG|EAAG ABcd|
e2 ec d2 dB|c2 cA B2 AG|EGGF GAGE|DGGF G2:|


